X:5
T:Scatter the Mud
T:Maid of Tramore, The
M:6/8
R:jig
Z:Madison
K:ADor
eAABAA|eAA ABd|eAA BAB|dBG GBd|eAA BAA|eAA AGE|GABd2e|dBAA3:|
abag2e|dBGGBd|abag2e|dBde3|abag2e|dBGAGE|GAB d2e|dBA A3:|
<end>
<start>
